material/.icons/material/format-bold.svg

<svg xmlns="http://www.w3.org/2000/svg" viewBox="0 0 24 24"><path d="M13.5 15.5H10v-3h3.5A1.5 1.5 0 0115 14a1.5 1.5 0 01-1.5 1.5m-3.5-9h3A1.5 1.5 0 0114.5 8 1.5 1.5 0 0113 9.5h-3m5.6 1.29c.97-.68 1.65-1.79 1.65-2.79 0-2.26-1.75-4-4-4H7v14h7.04c2.1 0 3.71-1.7 3.71-3.79 0-1.52-.86-2.82-2.15-3.42z"/></svg>

<?xml version="1.0" encoding="UTF-8"?><!DOCTYPE svg PUBLIC "-//W3C//DTD SVG 1.1//EN" "http://www.w3.org/Graphics/SVG/1.1/DTD/svg11.dtd"><svg xmlns="http://www.w3.org/2000/svg" xmlns:xlink="http://www.w3.org/1999/xlink" version="1.1" id="mdi-format-bold" width="24" height="24" viewBox="0 0 24 24"><path d="M13.5,15.5H10V12.5H13.5A1.5,1.5 0 0,1 15,14A1.5,1.5 0 0,1 13.5,15.5M10,6.5H13A1.5,1.5 0 0,1 14.5,8A1.5,1.5 0 0,1 13,9.5H10M15.6,10.79C16.57,10.11 17.25,9 17.25,8C17.25,5.74 15.5,4 13.25,4H7V18H14.04C16.14,18 17.75,16.3 17.75,14.21C17.75,12.69 16.89,11.39 15.6,10.79Z" /></svg>
